dist/img/video-twit.svg

<svg width="52" height="51" viewBox="0 0 52 51" fill="none" xmlns="http://www.w3.org/2000/svg">
<rect width="52" height="51" fill="#E5E5E5"/>
<g clip-path="url(#clip0_199_738)">
<rect width="1600" height="5201" transform="translate(-736 -4715)" fill="white"/>
<g filter="url(#filter0_d_199_738)">
<circle cx="25.7592" cy="25.6298" r="25.2778" fill="#2AA3EF"/>
<path fill-rule="evenodd" clip-rule="evenodd" d="M36.1297 19.1985C35.367 19.5368 34.5459 19.7655 33.6856 19.869C34.5642 19.3418 35.2389 18.5088 35.5562 17.5156C34.7338 18.0032 33.8235 18.3571 32.8535 18.5473C32.0774 17.7203 30.9719 17.2039 29.7481 17.2039C27.398 17.2039 25.4921 19.1083 25.4921 21.4581C25.4921 21.7927 25.5311 22.1165 25.6031 22.4283C22.067 22.2513 18.9323 20.5564 16.8336 17.9827C16.4663 18.6111 16.2577 19.3418 16.2577 20.1218C16.2577 21.5977 17.0093 22.9002 18.1502 23.6622C17.4523 23.6405 16.7958 23.4491 16.2235 23.1301C16.2235 23.1482 16.2235 23.1662 16.2235 23.1843C16.2235 25.2452 17.689 26.9642 19.6364 27.3554C19.2789 27.4529 18.9043 27.5047 18.515 27.5047C18.2417 27.5047 17.9745 27.4782 17.7146 27.4276C18.2564 29.1178 19.828 30.348 21.69 30.3829C20.2331 31.5229 18.3979 32.2031 16.4041 32.2031C16.0612 32.2031 15.722 32.1838 15.3889 32.1441C17.2717 33.3515 19.5083 34.0557 21.912 34.0557C29.7383 34.0557 34.0187 27.5733 34.0187 21.9516C34.0187 21.7662 34.0139 21.5844 34.0065 21.4015C34.8375 20.802 35.5598 20.052 36.1297 19.1997V19.1985Z" fill="white"/>
</g>
</g>
<path d="M-1579.5 -363.5C-1582 -363.5 -1584 -361.5 -1584 -359C-1584 -356.5 -1582 -354.5 -1579.5 -354.5C-1577 -354.5 -1575 -356.5 -1575 -359C-1575 -361.5 -1577 -363.5 -1579.5 -363.5Z" fill="white"/>
<path d="M1022.06 693.061C1022.65 692.475 1022.65 691.525 1022.06 690.939L1012.51 681.393C1011.93 680.808 1010.98 680.808 1010.39 681.393C1009.81 681.979 1009.81 682.929 1010.39 683.515L1018.88 692L1010.39 700.485C1009.81 701.071 1009.81 702.021 1010.39 702.607C1010.98 703.192 1011.93 703.192 1012.51 702.607L1022.06 693.061ZM-1582.5 -359C-1582.5 -360.672 -1581.17 -362 -1579.5 -362V-365C-1582.83 -365 -1585.5 -362.328 -1585.5 -359H-1582.5ZM-1579.5 -362C-1577.83 -362 -1576.5 -360.672 -1576.5 -359H-1573.5C-1573.5 -362.328 -1576.17 -365 -1579.5 -365V-362ZM-1576.5 -359C-1576.5 -357.328 -1577.83 -356 -1579.5 -356V-353C-1576.17 -353 -1573.5 -355.672 -1573.5 -359H-1576.5ZM-1579.5 -356C-1581.17 -356 -1582.5 -357.328 -1582.5 -359H-1585.5C-1585.5 -355.672 -1582.83 -353 -1579.5 -353V-356ZM-1581 -354.5V672H-1578V-354.5H-1581ZM-1559.5 693.5H1021V690.5H-1559.5V693.5ZM-1581 672C-1581 683.874 -1571.37 693.5 -1559.5 693.5V690.5C-1569.72 690.5 -1578 682.217 -1578 672H-1581Z" fill="black"/>
<defs>
<filter id="filter0_d_199_738" x="-15.0741" y="-7.42573" width="81.6668" height="81.6668" filterUnits="userSpaceOnUse" color-interpolation-filters="sRGB">
<feFlood flood-opacity="0" result="BackgroundImageFix"/>
<feColorMatrix in="SourceAlpha" type="matrix" values="0 0 0 0 0 0 0 0 0 0 0 0 0 0 0 0 0 0 127 0" result="hardAlpha"/>
<feOffset dy="7.77778"/>
<feGaussianBlur stdDeviation="7.77778"/>
<feColorMatrix type="matrix" values="0 0 0 0 0 0 0 0 0 0 0 0 0 0 0 0 0 0 0.1 0"/>
<feBlend mode="normal" in2="BackgroundImageFix" result="effect1_dropShadow_199_738"/>
<feBlend mode="normal" in="SourceGraphic" in2="effect1_dropShadow_199_738" result="shape"/>
</filter>
<clipPath id="clip0_199_738">
<rect width="1600" height="5201" fill="white" transform="translate(-736 -4715)"/>
</clipPath>
</defs>
</svg>

<svg width="52" height="51" fill="none" xmlns="http://www.w3.org/2000/svg"><path fill="#E5E5E5" d="M0 0h52v51H0z"/><g clip-path="url(#a)"><path fill="#fff" d="M-736-4715H864V486H-736z"/><g filter="url(#b)"><circle cx="25.759" cy="25.63" r="25.278" fill="#2AA3EF"/><path fill-rule="evenodd" clip-rule="evenodd" d="M36.13 19.198a8.534 8.534 0 0 1-2.444.671 4.267 4.267 0 0 0 1.87-2.353 8.503 8.503 0 0 1-2.703 1.031 4.255 4.255 0 0 0-7.25 3.881 12.08 12.08 0 0 1-8.77-4.445 4.224 4.224 0 0 0-.575 2.139c0 1.476.751 2.778 1.892 3.54a4.22 4.22 0 0 1-1.926-.532v.054c0 2.061 1.465 3.78 3.412 4.171a4.249 4.249 0 0 1-1.921.073 4.262 4.262 0 0 0 3.975 2.955 8.549 8.549 0 0 1-5.286 1.82c-.343 0-.682-.02-1.015-.059a12.042 12.042 0 0 0 6.523 1.912c7.826 0 12.107-6.483 12.107-12.104 0-.186-.005-.368-.012-.55A8.65 8.65 0 0 0 36.13 19.2v-.002Z" fill="#fff"/></g></g><path d="M-1579.5-363.5c-2.5 0-4.5 2-4.5 4.5s2 4.5 4.5 4.5 4.5-2 4.5-4.5-2-4.5-4.5-4.5Z" fill="#fff"/><path d="M1022.06 693.061c.59-.586.59-1.536 0-2.122l-9.55-9.546a1.5 1.5 0 0 0-2.12 0 1.511 1.511 0 0 0 0 2.122l8.49 8.485-8.49 8.485a1.511 1.511 0 0 0 0 2.122 1.5 1.5 0 0 0 2.12 0l9.55-9.546ZM-1582.5-359c0-1.672 1.33-3 3-3v-3c-3.33 0-6 2.672-6 6h3Zm3-3c1.67 0 3 1.328 3 3h3c0-3.328-2.67-6-6-6v3Zm3 3c0 1.672-1.33 3-3 3v3c3.33 0 6-2.672 6-6h-3Zm-3 3c-1.67 0-3-1.328-3-3h-3c0 3.328 2.67 6 6 6v-3Zm-1.5 1.5V672h3V-354.5h-3Zm21.5 1048H1021v-3h-2580.5v3ZM-1581 672c0 11.874 9.63 21.5 21.5 21.5v-3c-10.22 0-18.5-8.283-18.5-18.5h-3Z" fill="#000"/><defs><clipPath id="a"><path fill="#fff" transform="translate(-736 -4715)" d="M0 0h1600v5201H0z"/></clipPath><filter id="b" x="-15.074" y="-7.426" width="81.667" height="81.667" filterUnits="userSpaceOnUse" color-interpolation-filters="sRGB"><feFlood flood-opacity="0" result="BackgroundImageFix"/><feColorMatrix in="SourceAlpha" values="0 0 0 0 0 0 0 0 0 0 0 0 0 0 0 0 0 0 127 0" result="hardAlpha"/><feOffset dy="7.778"/><feGaussianBlur stdDeviation="7.778"/><feColorMatrix values="0 0 0 0 0 0 0 0 0 0 0 0 0 0 0 0 0 0 0.1 0"/><feBlend in2="BackgroundImageFix" result="effect1_dropShadow_199_738"/><feBlend in="SourceGraphic" in2="effect1_dropShadow_199_738" result="shape"/></filter></defs></svg>
